X: 11
T: Missa L'homme arm\'e / Kyrie
N: Derived from Duf1004a-Missa_Lhomme_arme-Kyrie.krn
C: Guillaume Du Fay
%%abc-version 2.0
%%abcx-abcm2ps-target-version 5.9.1 (29 Sep 2008)
%%abc-creator hum2abc beta
%%abcx-conversion-date 2019/02/16 20:31:46
%%abc-edited-by Jesse Rodin
%%abc-edited-by Planchart/Rodin
%%abcx-initial-encoding-date 2013/12/07/
%%humdrum-veritas 2336620386
%%humdrum-veritas-data 1398870734
%%linebreak <none>
%%barnumbers 0
L: 1/4
M: 3/1
Q: 1/2=120
%%staves [1 2 3 4]
V: 1 clef=treble
V: 2 clef=treble-8
V: 3 clef=treble-8
V: 4 clef=bass
K: F
[V:1] G6A2=B4 | 
[V:2] d8g4 | 
[V:3] z12 | 
[V:4] G,8G,4 | 
[V:1] c4=B2d4c2 | 
[V:2] f2e2g6f2 | 
[V:3] z12 | 
[V:4] A,4G,8 | 
[V:1] =B2G2A4z2A2 | 
[V:2] d4z2c2d2f2 | 
[V:3] z12 | 
[V:4] G,4F,8 | 
[V:1] =B3G2FE2D4- | 
[V:2] e2d4g4g2- | 
[V:3] z12 | 
[V:4] G,12 | 
[V:1] D2G4F2G4 | 
[V:2] gfedd4z2d2 | 
[V:3] G8G4 | 
[V:4] z4B,8 | 
[V:1] z2A4G2A4 | 
[V:2] e4f6d2 | 
[V:3] c8c4 | 
[V:4] A,4F,8 | 
[V:1] B2G2A2^F4E2 | 
[V:2] d12- | 
[V:3] B4A8 | 
[V:4] G,4D,8 | 
[V:1] G4z4G4 | 
[V:2] d8d4 | 
[V:3] G12 | 
[V:4] z4G,4B,4 | 
[V:1] A3GFDE2D2A2 | 
[V:2] e2f4g2f2d2 | 
[V:3] z12 | 
[V:4] A,2D4C2D4 | 
[V:1] z2d2c2A4G2 | 
[V:2] a2gf2ee2d3c | 
[V:3] z12 | 
[V:4] A,2B,2A,2C2B,4 | 
[V:1] A4z4A4 | 
[V:2] e8f4 | 
[V:3] z12 | 
[V:4] A,8F,4 | 
[V:1] =B4c6B2 | 
[V:2] d2g2f2e4e2 | 
[V:3] z12 | 
[V:4] G,4A,8 | 
[V:1] d3c=B2A4B2 | 
[V:2] z2d4c2f2ed | 
[V:3] z12 | 
[V:4] B,4G,2A,2F,2G,2- | 
[V:1] G2AFGAD4^C2 | 
[V:2] cBA4B2G3F | 
[V:3] z12 | 
[V:4] G,2D,2F,2G,2E,4 | 
[V:1] D4z4F4 | 
[V:2] A12 | 
[V:3] z12 | 
[V:4] D,12 | 
[V:1] G2A2=B6c2 | 
[V:2] G8g4 | 
[V:3] d4d4G4 | 
[V:4] z4z4D4 | 
[V:1] A4=B3cd4 | 
[V:2] f4g8 | 
[V:3] z4d4d4 | 
[V:4] D4G,8 | 
[V:1] z2G2A2c3=BA2 | 
[V:2] G4e4f4 | 
[V:3] d4c8 | 
[V:4] B,4A,4F,4 | 
[V:1] G4A4F4 | 
[V:2] d2B2c4d4 | 
[V:3] B4A8 | 
[V:4] G,4F,4D,4 | 
[V:1] G2B2A2G2d3B | 
[V:2] d4z4d2e2 | 
[V:3] G4F2G4B2 | 
[V:4] z2D4B,2G,4 | 
[V:1] c2B2A4G2B2 | 
[V:2] f6e2d2z2 | 
[V:3] A2B2c4B2d2- | 
[V:4] F,8G,3F, | 
[V:1] cBAGF2G2A2^F2 | 
[V:2] B2c2A2B2c2d2 | 
[V:3] d2c2d2B2A4 | 
[V:4] G,2A,2D,2G,2F,2D,2 | 
[V:1] G12- | 
[V:2] B4G8 | 
[V:3] G12- | 
[V:4] z2D4D2B,4 | 
[V:1] G12 ||  
[V:2] d12 ||  
[V:3] G12 ||  
[V:4] G,12 ||  
[V:1]  [K:F] [K:clef=treble][M:4/2]D8 | 
[V:2]  [K:F] [K:clef=treble-8][M:4/2]d8- | 
[V:3]  [K:F] [K:clef=treble-8][M:4/2]z8 | 
[V:4]  [K:F] [K:clef=bass][M:4/2]z8 | 
[V:1] F6G2 | 
[V:2] d8- | 
[V:3] z8 | 
[V:4] z8 | 
[V:1] A4B4 | 
[V:2] d8- | 
[V:3] z8 | 
[V:4] z8 | 
[V:1] A4d4 | 
[V:2] d8 | 
[V:3] z8 | 
[V:4] z8 | 
[V:1] c4=B4- | 
[V:2] e6f2 | 
[V:3] z8 | 
[V:4] z8 | 
[V:1] B2A2A4- | 
[V:2] g4f4 | 
[V:3] z8 | 
[V:4] z8 | 
[V:1] A2G2F2D2 | 
[V:2] a8 | 
[V:3] z8 | 
[V:4] z8 | 
[V:1] E4D4 | 
[V:2] g4a4 | 
[V:3] z8 | 
[V:4] z8 | 
[V:1] z4D4 | 
[V:2] f6d2- | 
[V:3] z8 | 
[V:4] z8 | 
[V:1] F2E2F2D2 | 
[V:2] d2c2d4 | 
[V:3] z8 | 
[V:4] z8 | 
[V:1] E2A3GA2 | 
[V:2] A4c4 | 
[V:3] z8 | 
[V:4] z8 | 
[V:1] B2G4F2 | 
[V:2] B8 | 
[V:3] z8 | 
[V:4] z8 | 
[V:1] A8 | 
[V:2] A4z2d2- | 
[V:3] z8 | 
[V:4] z8 | 
[V:1] z2A4d2 | 
[V:2] d2c2d2f2 | 
[V:3] z8 | 
[V:4] z8 | 
[V:1] c2d2e4 | 
[V:2] e2f2g2a2- | 
[V:3] z8 | 
[V:4] z8 | 
[V:1] f2e2f2d2 | 
[V:2] a2g2a2f2 | 
[V:3] z8 | 
[V:4] z8 | 
[V:1] e2d2=B2c2 | 
[V:2] g2d2e4 | 
[V:3] z8 | 
[V:4] z8 | 
[V:1] d2z2A2=B2- | 
[V:2] d2f4g2 | 
[V:3] z8 | 
[V:4] z8 | 
[V:1] B2c2d2e2 | 
[V:2] e2z2f2e2 | 
[V:3] z8 | 
[V:4] z8 | 
[V:1] A2=B2A2d2 | 
[V:2] f2g2f2ed | 
[V:3] z8 | 
[V:4] z8 | 
[V:1] e2^c4=B2 | 
[V:2] c2f2e4 | 
[V:3] z8 | 
[V:4] z8 | 
[V:1] d8- | 
[V:2] d8 | 
[V:3] z8 | 
[V:4] z8 | 
[V:1] d8 | 
[V:2] z8 | 
[V:3] z8 | 
[V:4] z8 | 
[V:1] z8 | 
[V:2] G6A2 | 
[V:3] z8 | 
[V:4] z8 | 
[V:1] G6A2 | 
[V:2] B4c4 | 
[V:3] z8 | 
[V:4] z8 | 
[V:1] B4A2d2 | 
[V:2] d8 | 
[V:3] z8 | 
[V:4] z8 | 
[V:1] c2Bcd4- | 
[V:2] e4f4 | 
[V:3] z8 | 
[V:4] z8 | 
[V:1] d2c2B2A2 | 
[V:2] d6c2 | 
[V:3] z8 | 
[V:4] z8 | 
[V:1] B4G4 | 
[V:2] d4B4 | 
[V:3] z8 | 
[V:4] z8 | 
[V:1] ^F2F4E2 | 
[V:2] A8 | 
[V:3] z8 | 
[V:4] z8 | 
[V:1] G8 | 
[V:2] G8- | 
[V:3] z8 | 
[V:4] z8 | 
[V:1] z4G4 | 
[V:2] G8 | 
[V:3] d8 | 
[V:4] z8 | 
[V:1] F4B4 | 
[V:2] z8 | 
[V:3] d8 | 
[V:4] D,4G,4 | 
[V:1] A6G2 | 
[V:2] z8 | 
[V:3] d8 | 
[V:4] F,4D,4 | 
[V:1] G4z4 | 
[V:2] z8 | 
[V:3] G8 | 
[V:4] z4D4- | 
[V:1] =B2c2d4 | 
[V:2] z8 | 
[V:3] z8 | 
[V:4] D4B,4 | 
[V:1] e6d2 | 
[V:2] z8 | 
[V:3] g8 | 
[V:4] z4C4- | 
[V:1] c4=B2A2 | 
[V:2] z8 | 
[V:3] g4f4- | 
[V:4] C4D4 | 
[V:1] =B6A2 | 
[V:2] z8 | 
[V:3] f4f4 | 
[V:4] D8 | 
[V:1] c8 | 
[V:2] z8 | 
[V:3] g8 | 
[V:4] C8 | 
[V:1] z8 | 
[V:2] z8 | 
[V:3] e8 | 
[V:4] C4A,4 | 
[V:1] z8 | 
[V:2] G8- | 
[V:3] d8 | 
[V:4] B,6C2 | 
[V:1] z8 | 
[V:2] G8 | 
[V:3] z8 | 
[V:4] D8 | 
[V:1] z8 | 
[V:2] B6c2 | 
[V:3] g8 | 
[V:4] z4G,4- | 
[V:1] z8 | 
[V:2] d3_ed2cB | 
[V:3] g4f4- | 
[V:4] G,4D,4 | 
[V:1] z8 | 
[V:2] A8 | 
[V:3] f4f4 | 
[V:4] D,8 | 
[V:1] z8 | 
[V:2] G4B4 | 
[V:3] g8 | 
[V:4] z4G,4 | 
[V:1] z8 | 
[V:2] G4d4 | 
[V:3] g6fe | 
[V:4] B,4G,4- | 
[V:1] G8 | 
[V:2] B4G4- | 
[V:3] d8 | 
[V:4] G,4B,2C2 | 
[V:1] =B2c2d4- | 
[V:2] G4G4 | 
[V:3] z8 | 
[V:4] D4B,4 | 
[V:1] d4e4 | 
[V:2] B6c2 | 
[V:3] g8 | 
[V:4] G,6F,E, | 
[V:1] c4f4 | 
[V:2] A4c4 | 
[V:3] a8 | 
[V:4] F,8 | 
[V:1] e2d2d4 | 
[V:2] B8 | 
[V:3] g4f4 | 
[V:4] G,4z4 | 
[V:1] ^c2c4=B2 | 
[V:2] z4c4 | 
[V:3] e8 | 
[V:4] A,8 | 
[V:1] d6c2 | 
[V:2] A4B4- | 
[V:3] d8- | 
[V:4] D,4G,4- | 
[V:1] =B2G2A4 | 
[V:2] B2c2A4 | 
[V:3] d8- | 
[V:4] G,4F,4 | 
[V:1] =B2G2G4- | 
[V:2] G4B4 | 
[V:3] d8- | 
[V:4] G,8 | 
[V:1] G4^F4 | 
[V:2] A8 | 
[V:3] d8- | 
[V:4] D,8 | 
[V:1] G8 ||  
[V:2] G8 ||  
[V:3] d8 ||  
[V:4] B,8 & D8 ||  
[V:1]  [K:F] [K:clef=treble][M:3/1]G4=B2c2d4- | 
[V:2]  [K:F] [K:clef=treble-8][M:3/1]z4G4B3c | 
[V:3]  [K:F] [K:clef=treble-8][M:3/1]z12 | 
[V:4]  [K:F] [K:clef=bass][M:3/1]G,8G,4 | 
[V:1] d2c2=B2A2A4 | 
[V:2] d2e2g2^f4e2 | 
[V:3] z12 | 
[V:4] B,2C2D8 | 
[V:1] z2=B2A2c3Bc2 | 
[V:2] g4e4f4 | 
[V:3] z12 | 
[V:4] G,4A,8 | 
[V:1] d2=B3GB2A4 | 
[V:2] g4d4z4 | 
[V:3] z12 | 
[V:4] G,8F,4 | 
[V:1] G3FEDD2z2G2 | 
[V:2] d4B4c4 | 
[V:3] z12 | 
[V:4] G,6F,2E,4 | 
[V:1] F2G2B2A2G2d2 | 
[V:2] d8z2g2 | 
[V:3] z12 | 
[V:4] D,2G,4F,2G,2B,2 | 
[V:1] z2c2d2B4A2 | 
[V:2] f3eg4z2f2- | 
[V:3] z12 | 
[V:4] A,4G,4D4- | 
[V:1] B2A4d3cc2 | 
[V:2] f2e2f2d2e4 | 
[V:3] z12 | 
[V:4] D2C2D2B,2A,4 | 
[V:1] d2B2A2z2A2B2 | 
[V:2] d4c3BA2G2 | 
[V:3] z12 | 
[V:4] B,2G,2A,2F,4G,2- | 
[V:1] G3FE2D2C2G2 | 
[V:2] B4c2A2z2c2 | 
[V:3] z12 | 
[V:4] G,4A,2F,2E,4 | 
[V:1] F2E4D4^C2 | 
[V:2] d2B3AA2G3F | 
[V:3] z12 | 
[V:4] D,2G,4F,2E,4 | 
[V:1] D4z4A4 | 
[V:2] A4B2A2z2d2- | 
[V:3] z12 | 
[V:4] D,8D,4 | 
[V:1] B4A2c2B2G2 | 
[V:2] d2e2f4d2ed | 
[V:3] z12 | 
[V:4] G,4F,4B,4 | 
[V:1] F2A2B2G4^F2 | 
[V:2] cBA2G2d4c2 | 
[V:3] z12 | 
[V:4] A,2C2D2B,2A,4 | 
[V:1] G4z4z4 | 
[V:2] d12 | 
[V:3] z12 | 
[V:4] G,12 | 
[V:1] =B6c2d4 | 
[V:2] z4d6e2 | 
[V:3] G8G4 | 
[V:4] z12 | 
[V:1] c2A3GG2E2F2 | 
[V:2] f6e2c4 | 
[V:3] c8c4 | 
[V:4] F,6G,2A,4 | 
[V:1] G4A4^F3E | 
[V:2] d12- | 
[V:3] B4A8 | 
[V:4] G,4D,8 | 
[V:1] G4d4=B4 | 
[V:2] d8d4 | 
[V:3] G8z4 | 
[V:4] z4z4G,4 | 
[V:1] z2G2A2F2G4 | 
[V:2] B4A2B2c3B | 
[V:3] d4d4G4 | 
[V:4] G,4D,4E,4 | 
[V:1] A6d4c2 | 
[V:2] d4f8 | 
[V:3] z4d4d4 | 
[V:4] D,8D,4 | 
[V:1] =B3Ac4A3G | 
[V:2] g4e4f4 | 
[V:3] d4c8 | 
[V:4] G,4A,4F,4 | 
[V:1] G6^F2F2E2 | 
[V:2] d12- | 
[V:3] B4A8 | 
[V:4] G,4D,8 | 
[V:1] G8z4 | 
[V:2] d4z4B2c2 | 
[V:3] G12 | 
[V:4] G,4B,3CD4 | 
[V:1] D2E2D2G4A2 | 
[V:2] d2g3fe2d4 | 
[V:3] z12 | 
[V:4] G,12 | 
[V:1] =B3cd2 :
[V:2] g6- :
[V:3] G4G2 | 
[V:4] z2D4 :
[V:1] e4c2 [I:setbarnb 110]| 
[V:2] g2a4 | 
[V:3] c4c2 | 
[V:4] C2A,4 | 
[V:1] d2c2A2 :
[V:2] d2f2e2 :
[V:3] B2A4 | 
[V:4] G,2A,2C2 :
[V:1] z2B2A2 [I:setbarnb 111]| 
[V:2] g4f2 | 
[V:3] G4z2 | 
[V:4] B,2D4 | 
[V:1] B2G4 :
[V:2] g2z2c2 :
[V:3] d2d2G2 | 
[V:4] G,3F,E,2 :
[V:1] F4G2- [I:setbarnb 112]| 
[V:2] d2B2G2 | 
[V:3] z2d2d2 | 
[V:4] D,2z2B,2- | 
[V:1] G2A4 :
[V:2] d2e2f2 :
[V:3] d2c4 | 
[V:4] B,2A,2F,2 :
[V:1] G4^F2 [I:setbarnb 113]| 
[V:2] d4d2 | 
[V:3] B2A4 | 
[V:4] G,2D,4 | 
[V:1] G12 |]  
[V:2] d4B2c2d4 |]  
[V:3] G12 |]  
[V:4] z4G,8 |]  



